X: 121978
T: Lonesome Wedding HP
S: "Roche Collection of Traditional Irish Music" [III/61/173]
N: Related to "King of the Fairies"
L: 1/8
M: 4/4
R: hornpipe
K: Em
GF | E3F GFGA | BcBA GFGA | B2 E2 EFGB | AGFE DEFD |
E3F GFGA | BcBA GFGA | B2 E2 AGFG | E2 e2 e2 :|
Bd | efed B3B | g2 g2 B3A | GFGA GBdB | AGFE D2 Bd |
efed B3B | g2 g2 e3a | bagf gfed | e2 e2 B3d |
efed B3B | g2 g2 B3A | GABd edeB | AGFE D2 GA |
BABG d^cdB | egfa gfgd | edcB BAGF | E2 e2 e2 |]
